_includes/icons/ios-help.svg

<svg fill="#666" height="50" viewBox="0 0 50 50" width="50" xmlns="http://www.w3.org/2000/svg"><path d="m25 2c-12.690705 0-23 10.309295-23 23s10.309295 23 23 23 23-10.309295 23-23-10.309295-23-23-23zm0 2c11.609824 0 21 9.390176 21 21s-9.390176 21-21 21-21-9.390176-21-21 9.390176-21 21-21zm.289062 8.507812c-3.73.000001-6.203187 2.260126-6.742187 5.703126-.035.215999.071109.358531.287109.394531l2.259766.396484c.216.036.358531-.072109.394531-.287109.43-2.188 1.720516-3.408203 3.728516-3.408203 2.045 0 3.478515 1.291937 3.478515 3.335937.000001 1.22-.429593 2.044625-1.683593 3.765625l-2.404297 3.298828c-.753 1.041-1.074219 1.794469-1.074219 3.230469v1.46875c0 .215.142422.359469.357422.355469h2.367187c.215001 0 .357422-.142422.357422-.357422v-1.146485c0-1.219.216594-1.721453.933594-2.689453l2.402344-3.300781c1.22-1.686 1.828125-2.940109 1.828125-4.662109 0-3.551-2.618235-6.097657-6.490235-6.097657zm-1.576171 20.984376c-.216-.000001-.359375.144374-.359375.359374v3.083985c0 .215.142375.357422.359375.357422h2.726562c.214 0 .357422-.141422.357422-.357422v-3.083985c0-.213999-.142422-.359374-.357422-.359374z"/></svg>

<svg xmlns="http://www.w3.org/2000/svg" viewBox="0 0 50 50" width="50" height="50" fill="#666"><path style="line-height:normal;text-indent:0;text-align:start;text-decoration-line:none;text-decoration-style:solid;text-decoration-color:#000;text-transform:none;block-progression:tb;isolation:auto;mix-blend-mode:normal" d="M 25 2 C 12.309295 2 2 12.309295 2 25 C 2 37.690705 12.309295 48 25 48 C 37.690705 48 48 37.690705 48 25 C 48 12.309295 37.690705 2 25 2 z M 25 4 C 36.609824 4 46 13.390176 46 25 C 46 36.609824 36.609824 46 25 46 C 13.390176 46 4 36.609824 4 25 C 4 13.390176 13.390176 4 25 4 z M 25.289062 12.507812 C 21.559062 12.507813 19.085875 14.767938 18.546875 18.210938 C 18.511875 18.426937 18.617984 18.569469 18.833984 18.605469 L 21.09375 19.001953 C 21.30975 19.037953 21.452281 18.929844 21.488281 18.714844 C 21.918281 16.526844 23.208797 15.306641 25.216797 15.306641 C 27.261797 15.306641 28.695312 16.598578 28.695312 18.642578 C 28.695313 19.862578 28.265719 20.687203 27.011719 22.408203 L 24.607422 25.707031 C 23.854422 26.748031 23.533203 27.5015 23.533203 28.9375 L 23.533203 30.40625 C 23.533203 30.62125 23.675625 30.765719 23.890625 30.761719 L 26.257812 30.761719 C 26.472813 30.761719 26.615234 30.619297 26.615234 30.404297 L 26.615234 29.257812 C 26.615234 28.038812 26.831828 27.536359 27.548828 26.568359 L 29.951172 23.267578 C 31.171172 21.581578 31.779297 20.327469 31.779297 18.605469 C 31.779297 15.054469 29.161062 12.507812 25.289062 12.507812 z M 23.712891 33.492188 C 23.496891 33.492187 23.353516 33.636562 23.353516 33.851562 L 23.353516 36.935547 C 23.353516 37.150547 23.495891 37.292969 23.712891 37.292969 L 26.439453 37.292969 C 26.653453 37.292969 26.796875 37.151547 26.796875 36.935547 L 26.796875 33.851562 C 26.796875 33.637563 26.654453 33.492188 26.439453 33.492188 L 23.712891 33.492188 z"/></svg>
